X:1
T:Altro non e
T:Altro non e
T:Constantio Festa
T:Source : Il primo libro di madrigali a 3 voci---Venetia---A.Gardano---1559. Editor : André Vierendeels (24/10/14).
T:Notes : Original clefs : C1, C3, C4 Original note values have been halved Editorial accidentals above the staff Square brackets indicate ligatures
C:Constantio Festa
%%score [ 1 [ 2 3 ] ]
L:1/8
Q:1/4=100
M:2/2
K:C
V:1 treble nm="Canto" snm="C"
V:2 treble-8 nm="Tenor 1" snm="T 1"
V:3 treble-8 nm="Tenor 2" snm="T 2"
V:1
 G4 G4- | G2 G2 A2 A2 | B4 z4 | G4 A2 F2 | G4 E2 F2 | D2 G4 A2- | A2 GF E4- | E4 z2 G2 | %8
w: Al- tro|_ non e'l m'a-|mor|che can- t'e|ri- so, che|can- t'e ri-|* * * so,|_ per-|
 A2 c2 c2 B2 | c2 G2 A2 B2 | G2 G2 z2 G2 | A2 c2 c2 B2 | c4 G4 | G4 G2 G2- |"^#""^#" GF/E/ F2 G4 | %15
w: ch'io mi ve- d'ho-|mai di ve- der|pri- vo, quel|di- vin vol- t'o-|v'io mi|pas- ch'e vi-|* * * * vo,|
 z2 D2 D2 D2 | E4 C2 F2- | F2 D2 G4 | E2 A4 G2- | G2 F2 G4- | G4 z2 d2 | B2 B2 G2 G2 | c4 A4 | %23
w: et s'al- tro|mal non ho|_ che can-|t'et ri- *|* * so|_ il|pro- prio pa- ra-|di- so,|
 z2 d2 B2 B2 | G2 G2 c4 | A4 G2 F2 | G4 F4 | z2 D2 D2 D2 | E4 D4- | D8 | z2 G2 G2 F2 | G2 E2 D4 | %32
w: il pro- prio|pa- ra- di-|so'e- l'a- mor|mi- o,|ch'in tut- to|pri- vo|_|di do- lor|son' i- o,|
 z4 A4- | A4 G2 F2 | E4 F4 | E2 D2 E2 G2 | G2 G2 F2 E2 | D4 C4 | z4 G4- | G4 c4- | c2 B2 A2 A2 | %41
w: e|_ gu- sto'l|ben, e|gu- sto'l ben che|poi fru- ir de-|si- o,|ahi|_ pos-|* san- za d'a-|
 B4 G4 | A2 B2 c4 | B4 z2 G2 | F2 D2 F3 G | A4 E4 | z2 G2 F2 D2 | F3 G A4 | E4 G4 | D3 E FG A2- | %50
w: mor, ahi|dol- ce for-|te, ch'in|ciel mi ri- po-|ne- te,|ch'in ciel mi|ri- po- ne-|te an-|ti _ _ _ la|
 AG G4 F2 | G8- | G8- | G8 |] %54
w: _ _ mor- *|te.|_||
V:2
 d4 e4- | e2 d2 e2 f2 | g4 z2 d2- | d2 e2 c2 d2- | d2 e2 c2 d2- | dc BA G2 c2- | c2 B2 c4 | %7
w: Al- tro|_ non e'l m'a-|mor che|_ can- t'e ri-|* so, che can-|* * * * te ri-|* * so,|
 z2 c2 d2 e2 | f3 f e2 d2 | f2 e2 c2 d2 | z2 d2 e2 g2 | g2 f2 g2 g2 | f2 e2 d4 | e2 d2 e2 d2 | %14
w: per- ch'io mi|ve- d'ho- mai di|ve- der pri- vo,|quel di- vin|vol- t'o- v'io mi|pas- ch'e vi-|vo, mi pas- ch'e|
 c4 d4 | z2 B2 A2 B2 | c4 A4 | d4 B2 e2- | ed cB c2 B2 | A4 G4- | G8 | z2 g2 e2 e2 | e2 e2 f4 | %23
w: vi- vo,|et s'al- tro|mal non|ho che can-|* * * * * t'et|ri- so|_|il pro- prio|pa- ra- di-|
 d4 z2 g2 | e2 e2 e2 e2 | f4 d4 | B2 c2 d2 d2 | z2 B2 B2 B2 | c4 B4 | z2 B2 B2 A2 | B2 c2 d4 | %31
w: so, il|pro- prio pa- ra-|di- so'e-|l'a- mor mi- o,|ch'in tut- to|pri- vo|di do- lor|son' i- o,|
 z2 B2 B2 A2 | B2 c2 d4 | f4 e2 d2 | c4 c4 | B2 A2 B2 c2 | e2 e2 d2 c2- | c2 B2 c4 | z4 e4- | %39
w: di do- lor|son' i- o,|e gu- sto'l|ben, e|gu- sto'l ben che|poi fru- ir de-|* si- o,|ahi|
 e4 a4- |"^#" a2 g2 g2 f2 | g2 d2 e2 cd |"^#" ef g4 f2 | g4 d4- | d4 z2 d2 | c2 A2 c3 d | e4 B4 | %47
w: _ pos-|* san- za d'a-|mor, ahi dol- ce _|_ _ _ _|for- te,|_ ch'in|ciel mi ri- po-|ne- te,|
 z2 d2 c2 A2 | c3 d e2 B2- | B2 d3 c A2 | B2 c2 A4 | G4 z2 d2 | e2 d2 e4 | d8 |] %54
w: ch'in ciel mi|ri- po- ne- te|_ a- * *|ti la mor-|te, an-|ti la mor-|te.|
V:3
 G4 c4- | c2 B2 A2 d2 | G8- | G4 z4 | G4 A2 F2 | G3 F E2 F2 | D4 C4- | C4 z4 | z4 z2 G2 | %9
w: Al- tro|_ non e'l m'a-|mor|_|che can- t'e|ri- * * *|* so,|_|per-|
 A2 c2 c2 B2 | c2 G2 c2 B2 | A4 G2 z G | A2 c2 c2 B2 | c2 G2 c2 B2 | A4 G4 | z2 G2 F2 G2 | %16
w: ch'io mi ve- d'ho-|mai di ve- der|pri- vo, quel|di- vin vol- t'o-|v'io mi pas- ch'e|vi- vo,|et s'al- tro|
 C2 C2 F4 | D2 G4 E2 | A4 F2 G2 | D4 d4 | z2 d2 B2 B2 | G2 G2 c4 | A4 z2 d2 | B2 B2 G2 G2 | c4 A4 | %25
w: mal non ho|che can- t'et|ri- * *|* so|il pro- prio|pa- ra di-|so, il|pro- prio pa- ra-|di- so|
 F4 G2 D2 | E4 D4 | z2 G2 G2 G2 | C4 G4 | z2 G2 G2 F2 | G2 E2 D4 | z2 G2 G2 F2 | G2 E2 D4 | z8 | %34
w: e l'a- mor|mi- o,|ch'in tut- to|pri- vo|di do- lor|son' i- o,|di do- lor|son' i- o,||
 A8 | G2 F2 E2 C2 | C2 C2 D2 E2 | F2 G2 C4 | z4 c4- | c4 F4- | F2 G2 d2 d2 | G2 G2 c4- | c2 B2 A4 | %43
w: e|gu- sto'l ben che|poi fru- ir de-|si- * o,|ahi|_ pos-|* san- za d'a-|mor, ahi dol-|* ce for-|
 G8 | z2 G2 F2 D2 | F3 G A4 |"^#" E4 z2 G2 | F2 D2 F3 G | A4 E4 | G3 F D2 F2 | E4 D4 | G4 z2 G2 | %52
w: te,|ch'in ciel mi|ri- po- ne-|te, ch'in|ciel li ri- po-|ne- te|an- * ti la|mor- *|te, an-|
 c2 B2 c4 | G8 |] %54
w: ti la mor-|te.|

